assets/Peace symbol/Flat/peace_symbol_flat.svg

<svg width="32" height="32" viewBox="0 0 32 32" fill="none" xmlns="http://www.w3.org/2000/svg">
<path d="M30 26C30 28.2091 28.2091 30 26 30H6C3.79086 30 2 28.2091 2 26V6C2 3.79086 3.79086 2 6 2H26C28.2091 2 30 3.79086 30 6V26Z" fill="#8D65C5"/>
<path d="M16 26C21.5228 26 26 21.5228 26 16C26 10.4772 21.5228 6 16 6C10.4772 6 6 10.4772 6 16C6 21.5228 10.4772 26 16 26ZM15 18.8284V23.9381C13.6421 23.7688 12.3898 23.2591 11.3313 22.4971L15 18.8284ZM15 16L9.86515 21.1348C8.70094 19.7454 8 17.9545 8 16C8 11.9204 11.0537 8.55399 15 8.06189V16ZM22.1348 21.1348L17 16V8.06189C20.9463 8.55399 24 11.9204 24 16C24 17.9545 23.2991 19.7454 22.1348 21.1348ZM20.6687 22.4971C19.6102 23.2591 18.3579 23.7688 17 23.9381V18.8284L20.6687 22.4971Z" fill="white"/>
</svg>

<svg xmlns="http://www.w3.org/2000/svg" width="32" height="32" fill="none"><path fill="#8D65C5" d="M30 26a4 4 0 0 1-4 4H6a4 4 0 0 1-4-4V6a4 4 0 0 1 4-4h20a4 4 0 0 1 4 4v20Z"/><path fill="#fff" d="M16 26c5.523 0 10-4.477 10-10S21.523 6 16 6 6 10.477 6 16s4.477 10 10 10Zm-1-7.172v5.11a7.956 7.956 0 0 1-3.669-1.44L15 18.827ZM15 16l-5.135 5.135A8.001 8.001 0 0 1 15 8.062V16Zm7.135 5.135L17 16V8.062a8.001 8.001 0 0 1 5.135 13.073Zm-1.466 1.362A7.956 7.956 0 0 1 17 23.938v-5.11l3.669 3.67Z"/></svg>
